X:565
T:Lady Nelson's Waltz
C:Wm. Mittell's MS, 1799
M:3/4
L:1/8
S:Colin Hume's website,  colinhume.com  - chords can also be printed below the stave.
Q:3/4=48
R:Waltz
N:Originally written in 3/8.
%%MIDI program 69       % English Horn
%%MIDI chordprog 45     % Pizzicato Strings
%%MIDI bassprog 32      % Acoustic Bass
K:Bb
%%center For "Waltz Cotillion" play (AA BB CC) x 5 + extra A.
P:A
|: b2 | "Bb"f2d2B2 | "/"B2A2B2 | "F"c2A2F2 | "/"F4cd |\
"Cm"edcBAB | "F7"cBAGFE | "Bb"D2B2 "Eb"B2 | "Bb"B4 :|
P:B
|: f2 | "F"=efgfef | "Bb"_e4d2 | "Cm"d2c2 B2 | "F"B2A2f2 |\
"F"=efgfef | "Bb"_e4d2 | "Cm"c2B2 "F7"A2 | "Bb"B4 :|
P:C
|: F2 | "Bb"DFBFDF | "Eb"EGBGEG | "F7"AcecAc | "Bb"BdfdBd |\
"Bb"DFBFDF | "Eb"EGBGEG | "F7"AcecAc | "Bb"B4 :|

